dist/svg/workspace.svg

<!-- Generated by Trend Micro Style Portal -->
<svg version="1.1" xmlns="http://www.w3.org/2000/svg" width="16" height="16" viewBox="0 0 16 16">
  <title>workspace</title>
  <path fill="rgb(34,34,34)" d="M8 1l-7 3v8l7 3 7-3v-8l-7-3zM12.9 4.7l-4.9 2.4-4.9-2.4 4.9-2.1 4.9 2.1zM2.5 6.1l4.8 2.4v4.6l-4.8-2.1v-4.9zM8.7 13.1v-4.6l4.8-2.4v4.9l-4.8 2v0.1z"></path>
</svg>

<svg width="16" height="16" viewBox="0 0 16 16" fill="rgb(34, 34, 34)" xmlns="http://www.w3.org/2000/svg"><title>workspace</title><path d="M8 1L1 4V12L8 15L15 12V4L8 1ZM12.9 4.7L8 7.1L3.1 4.7L8 2.6L12.9 4.7ZM2.5 6.1L7.3 8.5V13.1L2.5 11V6.1ZM8.7 13.1V8.5L13.5 6.1V11L8.7 13V13.1Z" fill="rgb(34, 34, 34)" fill-opacity="1.00"/></svg>
